X:1
T:Title
%%score ( 1 2 ) ( 3 4 )
L:1/8
Q:1/4=93
M:4/4
K:Ab
V:1 treble nm="Midi_20"
V:2 treble 
V:3 bass nm="Midi_20"
V:4 bass 
V:1
"^Ellers (10 10. 10 10.)""^Saviour, again to Thy dear Name we raise""^John Ellerton\n(1826-93)" E4 E2 F2 | %1
 E4 A4 | A2 G2 A2 B2 | c8 || A4 A2 B2 | A4 c4 | c2 B2 c2 =d2 |"^E. J. Hopkins\n(1818-1901)" e8 || %8
 e4 A2 A2 | d4 d4 | d2 B2 c2 d2 | c8 || A4 B2 A2 | A4 F4 | E2 E2 F2 E2 | E8 |] %16
V:2
 C4 C2 C2 | E4 E4 | D2 D2 D2 D2 | C8 || E4 E2 E2 | F4 A4 | A2 A2 A2 A2 | G8 || E4 E2 E2 | F4 F4 | %10
 E2 E2 E2 E2 | E8 || C4 C2 C2 | B,4 B,4 | B,2 B,2 D2 D2 | C8 |] %16
V:3
 A,4 A,2 A,2 | A,4 A,4 | E,2 E,2 F,2 G,2 | A,8 || C4 C2 C2 | C4 C4 | =D2 !courtesy!=D2 C2 B,2 | %7
 B,8 || %8
"^1. Saviour, again to Thy dear Name we raise\n    With one accord our parting hymn of praise;\n    We stand to bless Thee, ere our worship cease,\n    Then, lowly kneeling, wait Thy word of peace.\n\n2. Grant us Thy peace upon our homeward way;\n    With Thee began, with Thee shall end the day;    \n    Guard Thou the lips from sin, the hearts from shame,\n    That in Thy house have called upon Thy name.\n\n3. Grant us Thy peace, Lord, through the coming night;\n    Turn Thou for us its darkness into light;\n    From harm and danger keep Thy children free,\n    For dark and light are both alike to Thee.\n\n4. Grant us Thy peace throughout our earthly life;\n    Our balm in sorrow, and our stay in strife;\n    Then, when Thy voice shall bid our conflict cease,\n    Call us, O Lord, to Thine eternal peace." A,4 C2 C2 | %9
 D4 B,4 | B,2 B,2 G,2 G,2 | A,8 || A,4 A,2 A,2 | F,4 A,4 | G,2 G,2 G,2 G,2 | A,8 |] %16
V:4
 A,,4 A,,2 A,,2 | C,4 C,4 | B,,2 B,,2 B,,2 B,,2 | A,,8 || A,4 A,2 A,2 | F,4 F,4 | %6
 B,,2 B,,2 B,,2 B,,2 | E,8 || C,4 C2 C2 | B,4 A,4 | G,2 G,2 E,2 E,2 | A,,8 || F,4 F,2 F,2 | %13
 D,4 D,4 | E,2 E,2 E,2 E,2 | A,,8 |] %16

